src/assets/img/tech/javascript.svg

<svg xmlns="http://www.w3.org/2000/svg" width="256" height="256"><path fill="#F7DF1E" d="M6.5 6.5h243v243H6.5V6.5z"/><path d="M70.394 209.568l18.596-11.254c3.587 6.361 6.851 11.743 14.679 11.743 7.503 0 12.234-2.935 12.234-14.353v-77.645h22.836v77.967c0 23.652-13.865 34.418-34.091 34.418-18.268 0-28.872-9.461-34.254-20.879m80.749-2.443l18.594-10.767c4.895 7.993 11.257 13.865 22.511 13.865 9.462 0 15.497-4.73 15.497-11.256 0-7.829-6.199-10.603-16.64-15.168l-5.706-2.448c-16.477-7.013-27.405-15.821-27.405-34.416 0-17.128 13.049-30.178 33.439-30.178 14.518 0 24.956 5.057 32.459 18.27l-17.779 11.418c-3.916-7.014-8.155-9.786-14.68-9.786-6.688 0-10.929 4.24-10.929 9.786 0 6.851 4.24 9.624 14.026 13.866l5.709 2.446c19.41 8.319 30.341 16.801 30.341 35.884 0 20.555-16.149 31.809-37.842 31.809-21.206 0-34.908-10.112-41.595-23.325"/></svg>

<?xml version="1.0" encoding="UTF-8" standalone="no"?>
<!DOCTYPE svg PUBLIC "-//W3C//DTD SVG 1.1//EN" "http://www.w3.org/Graphics/SVG/1.1/DTD/svg11.dtd">
<svg width="100%" height="100%" viewBox="0 0 256 256" version="1.1" xmlns="http://www.w3.org/2000/svg" xmlns:xlink="http://www.w3.org/1999/xlink" xml:space="preserve" xmlns:serif="http://www.serif.com/" style="fill-rule:evenodd;clip-rule:evenodd;stroke-linejoin:round;stroke-miterlimit:2;">
    <g transform="matrix(0.769547,0,0,0.769547,29.4979,29.4979)">
        <rect x="6.5" y="6.5" width="243" height="243" style="fill:rgb(247,223,30);fill-rule:nonzero;"/>
        <path d="M70.394,209.568L88.99,198.314C92.577,204.675 95.841,210.057 103.669,210.057C111.172,210.057 115.903,207.122 115.903,195.704L115.903,118.059L138.739,118.059L138.739,196.026C138.739,219.678 124.874,230.444 104.648,230.444C86.38,230.444 75.776,220.983 70.394,209.565M151.143,207.122L169.737,196.355C174.632,204.348 180.994,210.22 192.248,210.22C201.71,210.22 207.745,205.49 207.745,198.964C207.745,191.135 201.546,188.361 191.105,183.796L185.399,181.348C168.922,174.335 157.994,165.527 157.994,146.932C157.994,129.804 171.043,116.754 191.433,116.754C205.951,116.754 216.389,121.811 223.892,135.024L206.113,146.442C202.197,139.428 197.958,136.656 191.433,136.656C184.745,136.656 180.504,140.896 180.504,146.442C180.504,153.293 184.744,156.066 194.53,160.308L200.239,162.754C219.649,171.073 230.58,179.555 230.58,198.638C230.58,219.193 214.431,230.447 192.738,230.447C171.532,230.447 157.83,220.335 151.143,207.122" style="fill-rule:nonzero;"/>
    </g>
</svg>
